svgs/comdirect.svg

<?xml version="1.0" encoding="UTF-8" standalone="no"?>
<!-- Created with Inkscape (http://www.inkscape.org/) -->

<svg
   version="1.1"
   id="svg2"
   width="192"
   height="192"
   viewBox="0 0 192 192"
   sodipodi:docname="comdirect.png"
   inkscape:version="0.0"
   xmlns:inkscape="http://www.inkscape.org/namespaces/inkscape"
   xmlns:sodipodi="http://sodipodi.sourceforge.net/DTD/sodipodi-0.dtd"
   xmlns="http://www.w3.org/2000/svg"
   xmlns:svg="http://www.w3.org/2000/svg">
  <defs
     id="defs6" />
  <sodipodi:namedview
     id="namedview4"
     pagecolor="#505050"
     bordercolor="#eeeeee"
     borderopacity="1"
     inkscape:showpageshadow="0"
     inkscape:pageopacity="0"
     inkscape:pagecheckerboard="0"
     inkscape:deskcolor="#505050"
     showgrid="false"
     showguides="true"
     inkscape:zoom="5.3489583"
     inkscape:cx="92.541383"
     inkscape:cy="96.841285"
     inkscape:window-width="2560"
     inkscape:window-height="1396"
     inkscape:window-x="0"
     inkscape:window-y="1484"
     inkscape:window-maximized="1"
     inkscape:current-layer="g8">
    <sodipodi:guide
       position="63.211086,175.73744"
       orientation="0,-1"
       id="guide568"
       inkscape:locked="false" />
    <sodipodi:guide
       position="-30.10831,206.22026"
       orientation="1,0"
       id="guide570"
       inkscape:locked="false" />
    <sodipodi:guide
       position="16.193916,169.7251"
       orientation="0,-1"
       id="guide572"
       inkscape:locked="false" />
    <sodipodi:guide
       position="156.92704,15.984192"
       orientation="0,-1"
       id="guide1128"
       inkscape:locked="false" />
  </sodipodi:namedview>
  <g
     inkscape:groupmode="layer"
     inkscape:label="Image"
     id="g8">
    <path
       style="display:inline;fill:none;stroke:#000000;stroke-width:12;stroke-linecap:round;stroke-linejoin:round;stroke-miterlimit:57.5;paint-order:stroke markers fill"
       id="path347"
       sodipodi:type="arc"
       sodipodi:cx="108.48098"
       sodipodi:cy="96.050171"
       sodipodi:rx="74.370407"
       sodipodi:ry="73.795273"
       sodipodi:start="0.72431164"
       sodipodi:end="5.5466564"
       sodipodi:open="true"
       sodipodi:arc-type="arc"
       d="M 164.18112,144.9484 A 74.370407,73.795273 0 0 1 82.34475,165.13826 74.370407,73.795273 0 0 1 34.11196,96.500956 74.370407,73.795273 0 0 1 81.496076,27.284072 74.370407,73.795273 0 0 1 163.57492,46.480369" />
    <path
       style="display:inline;fill:none;stroke:#000000;stroke-width:12;stroke-linecap:round;stroke-linejoin:round;stroke-miterlimit:57.5;paint-order:stroke markers fill"
       id="path349"
       sodipodi:type="arc"
       sodipodi:cx="108.80466"
       sodipodi:cy="96.623116"
       sodipodi:rx="40.62709"
       sodipodi:ry="40.62709"
       sodipodi:start="0.72431164"
       sodipodi:end="5.5466564"
       sodipodi:open="true"
       sodipodi:arc-type="arc"
       d="M 139.23255,123.54344 A 40.62709,40.62709 0 0 1 94.526949,134.65872 40.62709,40.62709 0 0 1 68.178325,96.87129 40.62709,40.62709 0 0 1 94.063335,58.764776 40.62709,40.62709 0 0 1 138.90139,69.333064" />
    <path
       style="fill:none;stroke:#000000;stroke-width:12;stroke-linecap:round;stroke-linejoin:round;stroke-miterlimit:57.5;paint-order:stroke markers fill"
       d="M 163.60362,46.519497 138.8717,69.307814"
       id="path405"
       sodipodi:nodetypes="cc" />
    <path
       style="display:inline;fill:none;stroke:#000000;stroke-width:12;stroke-linecap:round;stroke-linejoin:round;stroke-miterlimit:57.5;paint-order:stroke markers fill"
       d="m 139.16704,123.57519 24.97281,21.27274"
       id="path566"
       sodipodi:nodetypes="cc" />
  </g>
</svg>

<svg width="192" height="192" xmlns="http://www.w3.org/2000/svg"><path style="display:inline;fill:none;stroke:#000;stroke-width:12;stroke-linecap:round;stroke-linejoin:round;stroke-miterlimit:57.5;paint-order:stroke markers fill" d="M164.181 144.948a74.37 73.795 0 0 1-81.836 20.19 74.37 73.795 0 0 1-48.233-68.637 74.37 73.795 0 0 1 47.384-69.217 74.37 73.795 0 0 1 82.079 19.196"/><path style="display:inline;fill:none;stroke:#000;stroke-width:12;stroke-linecap:round;stroke-linejoin:round;stroke-miterlimit:57.5;paint-order:stroke markers fill" d="M139.233 123.543a40.627 40.627 0 0 1-44.706 11.116A40.627 40.627 0 0 1 68.178 96.87a40.627 40.627 0 0 1 25.885-38.106 40.627 40.627 0 0 1 44.838 10.568"/><path style="fill:none;stroke:#000;stroke-width:12;stroke-linecap:round;stroke-linejoin:round;stroke-miterlimit:57.5;paint-order:stroke markers fill" d="m163.604 46.52-24.732 22.788"/><path style="display:inline;fill:none;stroke:#000;stroke-width:12;stroke-linecap:round;stroke-linejoin:round;stroke-miterlimit:57.5;paint-order:stroke markers fill" d="m139.167 123.575 24.973 21.273"/></svg>
